src/assets/filled/MirroringScreen.svg

<?xml version="1.0" encoding="UTF-8"?>
<svg width="24" height="24" viewBox="0 0 24 24" xmlns="http://www.w3.org/2000/svg">
 <path d="m17 3h-10c-2.76 0-5 2.24-5 5v8c0 2.76 2.24 5 5 5h10c2.76 0 5-2.24 5-5v-8c0-2.76-2.24-5-5-5zm-6.51 13.81c-0.03 0-0.06 0.01-0.1 0.01-0.37 0-0.69-0.28-0.74-0.65-0.13-1.02-0.87-1.76-1.89-1.89-0.41-0.05-0.7-0.43-0.65-0.84s0.43-0.7 0.84-0.65c1.69 0.22 2.97 1.5 3.19 3.19 0.05 0.4-0.24 0.78-0.65 0.83zm3.05-0.51c-0.03 0-0.06 0.01-0.1 0.01-0.37 0-0.69-0.28-0.74-0.65-0.31-2.38-2.04-4.12-4.43-4.43-0.41-0.05-0.7-0.43-0.65-0.84s0.43-0.7 0.84-0.65c3.08 0.4 5.33 2.64 5.73 5.73 0.05 0.4-0.24 0.77-0.65 0.83zm2.7-0.87c-0.03 0-0.06 0.01-0.1 0.01-0.37 0-0.69-0.28-0.74-0.65-0.43-3.38-2.89-5.84-6.27-6.27-0.41-0.05-0.7-0.43-0.65-0.84s0.43-0.7 0.84-0.65c4.07 0.52 7.04 3.49 7.57 7.57 0.05 0.41-0.24 0.78-0.65 0.83z"/>
</svg>

<svg width="24" height="24" viewBox="0 0 24 24"  xmlns="http://www.w3.org/2000/svg">
<path d="M17 3H7C4.24 3 2 5.24 2 8V9V16C2 18.76 4.24 21 7 21H16H17C19.76 21 22 18.76 22 16V8C22 5.24 19.76 3 17 3ZM10.49 16.81C10.46 16.81 10.43 16.82 10.39 16.82C10.02 16.82 9.7 16.54 9.65 16.17C9.52 15.15 8.78 14.41 7.76 14.28C7.35 14.23 7.06 13.85 7.11 13.44C7.16 13.03 7.54 12.74 7.95 12.79C9.64 13.01 10.92 14.29 11.14 15.98C11.19 16.38 10.9 16.76 10.49 16.81ZM13.54 16.3C13.51 16.3 13.48 16.31 13.44 16.31C13.07 16.31 12.75 16.03 12.7 15.66C12.39 13.28 10.66 11.54 8.27 11.23C7.86 11.18 7.57 10.8 7.62 10.39C7.67 9.98 8.05 9.69 8.46 9.74C11.54 10.14 13.79 12.38 14.19 15.47C14.24 15.87 13.95 16.24 13.54 16.3ZM16.24 15.43C16.21 15.43 16.18 15.44 16.14 15.44C15.77 15.44 15.45 15.16 15.4 14.79C14.97 11.41 12.51 8.95 9.13 8.52C8.72 8.47 8.43 8.09 8.48 7.68C8.53 7.27 8.91 6.98 9.32 7.03C13.39 7.55 16.36 10.52 16.89 14.6C16.94 15.01 16.65 15.38 16.24 15.43Z" />
</svg>
